img/fv/fv-wave-sp.svg

<svg fill="none" height="113" viewBox="0 0 390 113" width="390" xmlns="http://www.w3.org/2000/svg"><path clip-rule="evenodd" d="m0 33.4286 21.775-8.3572c21.45-8.3571 65-25.0714 108.225-16.71426 43.225 8.35716 86.775 41.78576 130 44.57146s86.775-25.0715 108.225-39l21.775-13.9286v117h-21.775c-21.45 0-65 0-108.225 0s-86.775 0-130 0-86.775 0-108.225 0h-21.775z" fill="#fff" fill-rule="evenodd"/></svg>

<svg width="390" height="113" viewBox="0 0 390 113" fill="none" xmlns="http://www.w3.org/2000/svg">
<path fill-rule="evenodd" clip-rule="evenodd" d="M0 33.4286L21.775 25.0714C43.225 16.7143 86.775 0 130 8.35714C173.225 16.7143 216.775 50.1429 260 52.9286C303.225 55.7143 346.775 27.8571 368.225 13.9286L390 0V117H368.225C346.775 117 303.225 117 260 117C216.775 117 173.225 117 130 117C86.775 117 43.225 117 21.775 117H0V33.4286Z" fill="white"/>
</svg>
